X:1
T:G Major Jeremiah Ingalls, 1805
T:Anonymous author, 16th century 86. 86. (C. M.)
T:The Heavenly Ode
T:Transcribed from  Ingalls' Christian Harmony, 1805.
%%score [ 1 2 3 4 ]
L:1/8
Q:1/4=160
M:4/4
K:G
V:1 treble nm="Tr." snm="Tr."
V:2 treble nm="C." snm="C."
V:3 treble-8 nm="T." snm="T."
V:4 bass nm="B." snm="B."
V:1
"^1. Je – ru –sa–lem, my happy home,   O   how  I   long   for         thee!                                                 When will my sorrows have an end?  When will my sorrows\n2. Thy walls are all of precious stone,  Most  glorious  to  be  –   hold;                                                   Thy gates are richly set with pearl;   Thy gates  are  richly \n3. Thy garden and thy pleasant green  My  stu–dy  long  have   been:                                                 Such sparkling light, by human sight,  Such sparkling light, by" G8 | %1
 D2 G2 F2 G2 | AB cA B2 G2 | G2 [Bd]2 cB AG | [Fd]6 z2 | z8 | z8 | z4 z2 B2 | d2 g2 d2 B2 | %9
 d2 g2 d2 B2 | G2 B2 B2 B2 | A2 c2 c2 e2 | d2 c2 B2 A2 | B6 A2 | B2 B2 B2 B2 | %15
 [Bd]3 [Bd] [Bd]2 e2 | d2 c2 B2 A2 | B8 |] %18
V:2
 D8 | D2 D2 D2 G2 | F2 F2 G2 D2 | E2 G2 F2 E2 | [DF]6 z2 | z8 | %6
 z4 z2"^When will my sorrows have an end?  When will   my      sor  –  rows\n Thy gates are richly set with pearl;   Thy  gates  are     rich  –   ly\nSuch sparkling light, by human sight, Such spark–ling    light,     by" D2 | %7
 G2 B2 G2 D2 | G2 B2 G2 D2 | G4 G4 | G4 G4 | %11
"^1.   have an end?  My  joys, when shall  I  see?            When  will   my   sorrows   have   an   end?    My      joys,  when  shall   I      see?\n2.set with pearl, Thy streets are paved with gold.      Thy   gates  are  rich–ly    set  with pearl,     Thy  streets  are paved with gold.\n3.   human sight,  Has  ne–ver  yet  been  seen.           Such  sparkling  light,  by   hu–man  sight,     Has      ne – ver   yet   been  seen.""^4. If heaven be thus, glorious Lord,\nWhy should I stay from thence?\nWhat folly ’tis that I should dread\nTo die and go from hence?\n5. Reach down,reach down thine arm of grace\nAnd cause me to ascend\nWhere congregations ne’er break up,\nAnd sabbaths never end." F2 A2 A2 c2 | %12
 B2 A2 G2 F2 | G6 D2 | D2 B,2 D2 G2 | [DB]3 [DB] [DB]2 [Gc]2 | [DB]2 [EA]2 [DG]2 [DF]2 | [DG]8 |] %18
V:3
"^1. Je – ru–sa–lem,  my  happy home,    O  how  I   long    for        thee!           When will my sorrows have an end?  My joys,  when   shall     I           see?\n2. Thy walls are all of precious stone,  Most  glorious to   be   –   hold;            Thy gates are richly set with pearl;  Thy streets are  paved  with      gold.\n3. Thy garden and thy pleasant green   My  stu–dy  long  have   been:           Such sparkling light, by human sight  Has  ne –  ver     yet     been     seen." G8 | %1
 B2 B2 A2 G2 | d2 d2 d2 d2 | e2 d2 c2 B2 |{B} A6 z2 | z4 z2 B2 | d2 g2 d2 B2 | d2 g2 d2 B2 | %8
 G4 G4 | B4 (B2 c2) | d8 | z8 | z8 | z4 z2 d2 | B2 G2 B2 d2 | g3 g g2 B2 | d2 g2 B2 A2 | G8 |] %18
V:4
 G,8 | G,2 G,2 F,2 E,2 | D,2 D,2 G,2 G,2 | [C,C]2 [B,,B,]2 [A,,A,]2 [G,,G,]2 | %4
 D,6"^When will my sorrows have an end?  My joys, when shall  I      see? __________\nThy gates are richly set with pearl;  Thy streets are paved with gold. ________\nSuch sparkling light, by human sight  Has ne–ver yet been     seen. __________" D,2 | %5
 G,2 B,2 G,2 D,2 | G,2 B,2 G,2 D,2 | G,4 G,4 | B,4 (B,2 D2) | G,8- | G,8 | z8 | z8 | %13
 z4 z2"^6. Jesus my love to glory's gone,\nHim will I go and see,\nAnd all my brethren here below\nWill soon come after me.\n7. There we shall meet no more to part,\nAnd heaven shall ring with praise:\nWhile Jesus' love in every heart\nShall tune the song free grace." D,2 | %14
 [G,,G,]2 [G,,G,]2 [G,,G,]2 [G,,G,]2 | [G,,G,]3 [G,,G,] [G,,G,]2 [G,,G,][A,,A,] | %16
 [B,,B,]2 [C,C]2 [D,D]2 D,2 | [G,,G,]8 |] %18

